!!!COM: Marcello, Benedetto
!!!OPR: Concerto in F Major
!!!OTL:
!!!ONM: Opus 1, No. 8
!!!OMV: 2
!!!SCT:
!!!YOR: RISM M 443, I Vnm (Biblioteca Nazionale Marciana)
!!!EED: Frances Bennion
!!!ENC: Frances Bennion
!!!CDT: 1686/1/8/-1739/7/24/
!!!OCY: Italia
!!!YEC: Copyright (c) 1994, 2000 Center for Computer Assisted Research in the Humanities
!!!YEM: Rights to all derivative editions reserved.
!!!YEM: Refer to licensing agreement for further details.
!!!YEN: United States of America
**kern	**kern	**kern	**dynam	**kern	**dynam	**kern	**kern	**dynam
*I:Violino Principale	*I:Violino Primo	*I:Violino Secondo	*I:Violino Secondo	*I:Alto Viola	*I:Alto Viola	*I:Violoncello	*I:Organo	*I:Organo
*clefG2	*clefG2	*clefG2	*	*clefC3	*	*clefF4	*clefF4	*
*k[b-]	*k[b-]	*k[b-]	*	*k[b-]	*	*k[b-]	*k[b-]	*
*d:	*d:	*d:	*	*d:	*	*d:	*d:	*
*M3/2	*M3/2	*M3/2	*	*M3/2	*	*M3/2	*M3/2	*
! Adagio	!	!	!	!	!	!	!	!
=1-	=1-	=1-	=1-	=1-	=1-	=1-	=1-	=1-
2aa\	2ff\	2dd\	.	2a\	.	2D\	2D\	.
2ff\	2r	2r	.	2r	.	2r	2r	.
2dd\	2r	2r	.	2r	.	2r	2r	.
=2	=2	=2	=2	=2	=2	=2	=2	=2
2ee\	2ee\	2cc#\	.	2g\	.	2AA/	2AA/	.
2.aa\	2r	2r	.	2r	.	2r	2r	.
.	2r	2r	.	2r	.	2r	2r	.
4gg\	.	.	.	.	.	.	.	.
=3	=3	=3	=3	=3	=3	=3	=3	=3
4ff\	2ff\	2dd\	.	2a\	.	2D\	2D\	.
4ee\	.	.	.	.	.	.	.	.
1dd\	2r	2r	.	2r	.	2r	2r	.
.	2r	2r	.	2r	.	2r	2r	.
=4	=4	=4	=4	=4	=4	=4	=4	=4
2ff\	2ff\	2dd\	.	2a\	.	2D\	2D\	.
2.bb-\	2r	2r	.	2r	.	2r	2r	.
.	2r	2r	.	2r	.	2r	2r	.
4gg\	.	.	.	.	.	.	.	.
=5	=5	=5	=5	=5	=5	=5	=5	=5
!	!	!	!	!	!	!	! **Bnum:._6	!
2ee\	2ee\	2a/	.	2a\	.	2C/	2C/	.
2.aa\	2r	2r	.	2r	.	2r	2r	.
.	2r	2r	.	2r	.	2r	2r	.
4ff\	.	.	.	.	.	.	.	.
=6	=6	=6	=6	=6	=6	=6	=6	=6
!	!	!	!	!	!	!	! **Bnum:._7	!
2dd\	2dd\	2a/	.	2b-\	.	2BB-/	2BB-/	.
2.gg#\	2r	2r	.	2r	.	2r	2r	.
.	2r	2r	.	2r	.	2r	2r	.
4aa\	.	.	.	.	.	.	.	.
=7	=7	=7	=7	=7	=7	=7	=7	=7
!	!	!	!	!	!	!	! **Bnum:._#	!
2dd\	1.ee;\	2a;/	.	2e\	.	2AA/	1AA/	.
1cc#;\	.	2r	.	2r	.	2r	.	.
.	.	2r	.	2r	.	2r	2r;	.
=8	=8	=8	=8	=8	=8	=8	=8	=8
! Solo	!	!	!	!	!	!	! **Bnum:._7 #	!
(4.ff#\	2ff#\	2ccn\	.	2d\	.	2D\	2D\	.
8aa\)	.	.	.	.	.	.	.	.
(4aa\	2r	2r	.	2r	.	2r	2r	.
4ff#\)	.	.	.	.	.	.	.	.
(4dd\	2r	2r	.	2r	.	2r	2r	.
4aa\)	.	.	.	.	.	.	.	.
=9	=9	=9	=9	=9	=9	=9	=9	=9
2.bb-\	2gg\	2b-\	.	2d\	.	2GG/	2G\	.
.	2r	2r	.	2r	.	2r	2r	.
4ff#\	.	.	.	.	.	.	.	.
4gg\	2r	2r	.	2r	.	2r	2r	.
4dd\	.	.	.	.	.	.	.	.
=10	=10	=10	=10	=10	=10	=10	=10	=10
!	!	!	!	!	!	!	! **Bnum:._f	!
4ee-\	2cc\	2a/	.	2e-\	.	2C/	2C/	.
4cc\	.	.	.	.	.	.	.	.
!	!	!	!	!	!	!	! **Bnum:2_4	!
!	!	!	!	!	!	!	! **Bnum:._3	!
2.ff#\	1a/	1a/	.	2A/	.	1D\	1D\	.
.	.	.	.	2d\	.	.	.	.
4gg\	.	.	.	.	.	.	.	.
=11	=11	=11	=11	=11	=11	=11	=11	=11
1gg\	2g/	2b-\	.	2d\	.	2GG/	2GG/	.
.	2b-\	2g/	.	2d\	.	2GG/	2GG/	.
2r	2a/	2f/	.	2d\	.	2GG/	2GG/	.
=12	=12	=12	=12	=12	=12	=12	=12	=12
! Solo	!	!	!	!	!	!	!	!
4.een\	2g/	2e/	.	2c\	.	2C/	2C/	.
8gg\	.	.	.	.	.	.	.	.
(4gg\	2r	2r	.	2r	.	2r	2r	.
4ee\)	.	.	.	.	.	.	.	.
4cc\	2r	2r	.	2r	.	2r	2r	.
4gg\	.	.	.	.	.	.	.	.
=13	=13	=13	=13	=13	=13	=13	=13	=13
!	!	!	!	!	!	!	! **Bnum:._f	!
2.aa-\	2ff\	2cc\	.	2c\	.	2F\	2F\	.
.	2r	2r	.	2r	.	2r	2r	.
(4ee\	.	.	.	.	.	.	.	.
4ff\)	2r	2r	.	2r	.	2r	2r	.
4cc\	.	.	.	.	.	.	.	.
=14	=14	=14	=14	=14	=14	=14	=14	=14
(4dd-\	2b-\	2g/	.	2d-\	.	2BB-/	2BB-/	.
4b-\)	.	.	.	.	.	.	.	.
2.ee\	(2g/	1g/	.	1c\	.	1C/	1C/	.
.	2g/)	.	.	.	.	.	.	.
4ff\	.	.	.	.	.	.	.	.
=15	=15	=15	=15	=15	=15	=15	=15	=15
!	!	!	!	!	!	!	! **Bnum:._n	!
1ff\	2a/	2f/	.	2c\	.	2FF/	2FF/	.
!	!	!	!	!	!	!	! **Bnum:4_5	!
!	!	!	!	!	!	!	! **Bnum:._6	!
.	2a/	2cc\	.	2dn\	.	2F\	2F\	.
!	!	!	!	!	!	!	! **Bnum:._6#	!
2r	2g/	2cc#\	.	2e\	.	2E\	2E\	.
=16	=16	=16	=16	=16	=16	=16	=16	=16
2aa\	2f/	2dd\	.	2f\	.	2D\	2D\	.
2ff\	2r	2r	.	2r	.	2r	2r	.
2dd\	2r	2r	.	2r	.	2r	2r	.
=17	=17	=17	=17	=17	=17	=17	=17	=17
1.dd\	2ff\	2a/	.	2d\	.	2d\	2d\	.
.	2dd\	2b-\	.	2f\	.	2B-\	2B-\	.
.	2b-\	2dd\	.	2g\	.	2G\	2G\	.
=18	=18	=18	=18	=18	=18	=18	=18	=18
2bb-\	2b-\	2dd\	.	2g\	.	2G\	2G\	.
2gg\	2r	2r	.	2r	.	2r	2r	.
2ee\	2r	2r	.	2r	.	2r	2r	.
=19	=19	=19	=19	=19	=19	=19	=19	=19
!	!	!	!	!	!	!	! **Bnum:._#	!
2cc#\	2a/	2cc#\	.	2e\	.	2A\	2A\	.
2a/	2r	2r	.	2r	.	2r	2r	.
[2aa\	2r	2r	.	2r	.	2r	2r	.
=20	=20	=20	=20	=20	=20	=20	=20	=20
!	!	!	!	!	!	!	! **Bnum:4_7	!
!	!	!	!	!	!	!	! **Bnum:._6	!
2aa\]	2dd\	2ff\	.	2d\	.	2B-\	2B-\	.
2.gg\	2r	2r	.	2r	.	2r	2r	.
.	2r	2r	.	2r	.	2r	2r	.
4gg\	.	.	.	.	.	.	.	.
=21	=21	=21	=21	=21	=21	=21	=21	=21
!	!	!	!	!	!	!	! **Bnum:._# 7	!
2.gg\	2cc#\	2ee\	.	2a\	.	2A\	2A\	.
.	2r	2r	.	2r	.	2r	2r	.
4aa\	.	.	.	.	.	.	.	.
4ff\	2r	2r	.	2r	.	2r	2r	.
4ee\	.	.	.	.	.	.	.	.
=22	=22	=22	=22	=22	=22	=22	=22	=22
4ff\	2dd\	2a/	.	2d\	.	2D\	2D\	.
4ee\	.	.	.	.	.	.	.	.
1ee\	2.dd\	2.a/	.	2e\	.	2A\	2A\	.
.	.	.	.	2A/	.	2AA/	2AA/	.
.	4cc#\	4g/	.	.	.	.	.	.
=23	=23	=23	=23	=23	=23	=23	=23	=23
1.dd\	2dd\	2f/	.	2A/	.	2D\	2D\	.
.	2r	2dd\	.	2a\	.	2D\	2D\	.
.	2r	2dd\	.	2a\	.	2D\	2D\	.
=24	=24	=24	=24	=24	=24	=24	=24	=24
!	!	!	!	!	!	!	! **Bnum:._6f 5	!
2ee-\	2ee-\	2dd\	.	2b-\	.	2G\	2G\	.
!	!	!	!	!	!	!	! **Bnum:._6n 4	!
2.een\	2.een\	2b-\	.	2c\	.	2G\	2G\	.
.	.	2b-\	.	2c\	.	2G\	2G\	.
8dd\L	8dd\L	.	.	.	.	.	.	.
8ee\J	8ee\J	.	.	.	.	.	.	.
=25	=25	=25	=25	=25	=25	=25	=25	=25
2ff\	2ff\	2cc\	.	2A/	.	2F\	2F\	.
!	!	!	!	!	!	!	! **Bnum:._#	!
2.ff#\	2.ff#\	2cc\	.	2a\	.	2D\	2D\	.
.	.	2cc\	.	2a\	.	2D\	2D\	.
(8ee\L	(8ee\L	.	.	.	.	.	.	.
8ff#\J)	8ff#\J)	.	.	.	.	.	.	.
=26	=26	=26	=26	=26	=26	=26	=26	=26
2gg\	2gg\	2cc\	.	2d\	.	2G\	2G\	.
!	!	!	!	!	!	!	! **Bnum:._5n 3#	!
2.gg#\	2.gg#\	1bn\	.	1e\	.	1E\	2E\	.
.	.	.	.	.	.	.	2E\	.
(8ff#\L	8ff#\L	.	.	.	.	.	.	.
8gg#\J)	8gg#\J	.	.	.	.	.	.	.
=27	=27	=27	=27	=27	=27	=27	=27	=27
!	!	!	!	!	!	!	! **Bnum:._#	!
1aa\	1aa\	1cc#;\	.	1e\	.	1AA/	1AA/	.
2r	2r	2r	.	2r;	.	2r	2r	.
=28	=28	=28	=28	=28	=28	=28	=28	=28
!	!	! Soli	!	!	!	!	! **Bnum:._6f	!
!	!	!	!	!	!	!	! Soli	!
4r	1.r	2dd\	.	2g\	p	1.r	2G\	.
(4bb-\	.	.	.	.	.	.	.	.
4gg\)	.	2r	.	2r	.	.	2r	.
(4gg\	.	.	.	.	.	.	.	.
4ee-\)	.	2r	.	2r	.	.	2r	.
8ee-\L	.	.	.	.	.	.	.	.
8gg\J	.	.	.	.	.	.	.	.
=29	=29	=29	=29	=29	=29	=29	=29	=29
!	!	!	!	!	!	!	! **Bnum:._4# 2#	!
2.cc#\	1.r	2ee\	.	2a\	p	1.r	2G\	.
.	.	2r	.	2r	.	.	2r	.
4bb-\	.	.	.	.	.	.	.	.
4aa\	.	2r	.	2r	.	.	2r	.
4gg\	.	.	.	.	.	.	.	.
=30	=30	=30	=30	=30	=30	=30	=30	=30
4ff\	1.r	2dd\	.	2bn\	.	1.r	2G#\	.
4gg\	.	.	.	.	.	.	.	.
1ee\	.	2.cc#\	.	1e\	.	.	2A\	.
.	.	.	.	.	.	.	2AA/	.
.	.	4cc#\	.	.	.	.	.	.
=31	=31	=31	=31	=31	=31	=31	=31	=31
!	!	!	!	!	!	!	! **Bnum:._5	!
2dd\	1r	2dd\	f	2f\	f	2r	2D\	f
2bb-\	.	2r	.	2r	.	4r	4r	.
.	.	.	.	.	.	4d\	4d\	.
2r	2b-\	2f/	.	2f\	.	4d\	4d\	.
.	.	.	.	.	.	4D\	4D\	.
=32	=32	=32	=32	=32	=32	=32	=32	=32
!	!	!	!	!	!	!	! **Bnum:._7	!
2ee\	2b-\	2e/	.	2g\	.	2C/	2C/	.
2aa\	2r	2r	.	2r	.	4r	4r	.
!	!	!	!	!	!	!	! **Bnum:._6	!
.	.	.	.	.	.	4c\	4c\	.
2r	2a/	2e/	.	2a\	.	4c\	4c\	.
.	.	.	.	.	.	4C/	4C/	.
=33	=33	=33	=33	=33	=33	=33	=33	=33
!	!	!	!	!	!	!	! **Bnum:._7	!
2dd\	2a/	2d/	.	2b-\	.	2BB-/	2BB-/	.
2gg\	2r	2r	.	2r	.	4r	4r	.
!	!	!	!	!	!	!	! **Bnum:._6	!
.	.	.	.	.	.	4B-\	4B-\	.
2g/	2g/	2d/	.	2b-\	.	4B-\	4B-\	.
.	.	.	.	.	.	4BB-/	4BB-/	.
=34	=34	=34	=34	=34	=34	=34	=34	=34
1a/	2a/	2c#/	.	2e\	.	1AA/	2AA/	.
.	2r	2r;	.	2r	.	.	2r;	.
2r	2r	2r	.	2r	.	2r	2r	.
==|!	==|!	==|!	==|!	==|!	==|!	==|!	==|!	==|!
*-	*-	*-	*-	*-	*-	*-	*-	*-
!!!RWG: Key is interpreted using the Humdrum key tool.
!!!AFT: stage2
!!!END: 1998/05/22/
!!format changes:
!!content changes:
!!public access: complete
!!!KEY: 283468707
!!!EMD: Converted from MuseData to Humdrum Dec 16, 2000, by Andreas Kornstaedt using muse2kern.
